X: 1
T: Gan Ainm
M: 4/4
L: 1/8
R: barndance
K: Gmaj
|: B,2 DB, G,2 B,D | G2 G2 B4 |  A2 cA F2 EF | G2 BA GFED |
B,2 DB, G,2 B,D | G2 G2 B4 |  A2 cA F2 EF |[1 G2 G2 G4 :|[2 G2 G2 G2 ||
|: Bc | d2 d2 d2 cB | c2 c2 c2 AB | c2 c2 c2 BA | B2 dB G2 DC |
B,2 DB, G,2 B,D | GD B,D B4 |  A2 cA F2 EF | G2 G2 G2 :|
K: DMaj
|: A>G | (3FGF A>F D2 (3FGA | d>A (3FGA f4 |  (3efe g>e c2 B>c | d2 f>e d>cB>A |
F2 A>F D>AF>A | d2 d>c d2 (3fed |  e2 g>e c>AB>c |[1 d2 d>c d2 :|[2 d2 d>c d>e ||
|: f>g | a2 a>b (3aba g>f | g>d (3Bcd g2 e>f | g2 (3ggg g2 f>e | f2 a>f d2 A>G |
F2 (3AGF D2 F>A | d>A (3FGA f2 f>d |  (3efe g>e c2 (3ABc |[1 d2 (3ddd d2 :|[2 d2 d2 d4 |]
